X:29
T:Morski da' pojkar (Boda in C)
R:polska K1
Z:2001 Brian Wilson 
M:3/4
L:1/8
K:C
P:A
|: c2 GE C>E | G2 c/B/c/d/ e>g
| f2 d>B c>A | AG G>F EG
| c2 GE C>E | G2 c/B/c/d/ e>g
| f2 d>B c>A | ^F2 G4 :|
P:B
|: c2 ec A2 | f2 fe/d/ e2- | e2 d>B GB | d2 d4
|  c2 ec A2 | f2 fe/d/ e2- | e2 d>B GB | dB c4 :|
